logos/hashicorp-icon.svg

<?xml version="1.0" encoding="UTF-8"?>
<svg width="256px" height="271px" viewBox="0 0 256 271" version="1.1" xmlns="http://www.w3.org/2000/svg" preserveAspectRatio="xMidYMid">
    <title>HashiCorp</title>
    <g>
        <path d="M215.906642,38.5019086 L256,61.647726 L256,209.485004 L149.289126,271.048969 L149.289126,224.813175 L215.906642,186.339186 L215.906642,38.5019086 Z M149.289126,0 L189.382484,23.1458174 L189.382484,174.110154 L149.289126,197.228051 L149.289126,153.588832 L106.710874,153.588832 L106.710874,270.993129 L66.6175155,247.791471 L66.6175155,96.9388156 L106.710874,73.7929981 L106.710874,117.739339 L149.289126,117.739339 L149.289126,0 Z M106.710874,0 L106.710874,46.2357945 L40.0933581,84.709783 L40.0933581,232.547061 L0,209.401243 L0,61.5639655 L106.710874,0 Z" fill="#000000"></path>
    </g>
</svg>

<svg preserveAspectRatio="xMidYMid" viewBox="0 0 256 271" xmlns="http://www.w3.org/2000/svg">
  <path d="M215.907 38.502 256 61.648v147.837l-106.71 61.564v-46.236l66.617-38.474V38.502ZM149.289 0l40.093 23.146V174.11l-40.093 23.118v-43.64h-42.578v117.405l-40.093-23.202V96.94l40.093-23.146v43.946h42.578V0Zm-42.578 0v46.236L40.093 84.71v147.837L0 209.401V61.564L106.71 0Z"/>
</svg>
